X: 212
T: Miss Lyall (Panmure House)
M: C
L: 1/8
Q:1/4=170
K:Am % 1 Sharp
% (c) SSF July 2006
c/2B/2|
"Am"A<A, A,>B, C>D E>F|"G"G<G B>A G2c>B|
"Am"A<A, A,>B, C>D E>A|"E"c>A B<^G "Am"A3 c/2B/2|\
"Am"A<A, A,>B, C>D E>F|"G"G<G B>A G3 c/2d/2|
"C"e>c "G"d>B "F"c>A "G"B>G|"E"E>A cBA^G "Am"A3 c/2B/2||
"Am"A<a a>b g"G">a b/2a/2g/2f/2|"Am"[Ae]<a a>f "G"g2 f>g|
"Am"[Ae]<a a>b "G"g>a b/2a/2g/2f/2|"E"e>c d<B "Am"A3 c/2B/2|\
"Am"A<a a>b g"G">a b/2a/2g/2f/2|"Am"[Ae]<a a>f "G"g2 f>g|
"Am"(3afg (3gab "Dm"(3edc (3Bcd|"E"e>c d<B "Am" A3||
%  <A name="D1X213">
